packages/icons/raw/imported/MediaGif.svg

<svg width="32" height="32" viewBox="0 0 32 32" fill="none" xmlns="http://www.w3.org/2000/svg">
<path d="M20.9013 24.9833L20.5477 24.6297L20.9013 24.9833ZM25.5 9.42309L25 9.42308L25.5 9.42309ZM25.5 19.6538L26 19.6538V19.6538L25.5 19.6538ZM19.6538 19.6538V19.1538C19.3777 19.1538 19.1538 19.3777 19.1538 19.6538H19.6538ZM17.1034 11.0507C17.1034 10.7745 16.8796 10.5507 16.6034 10.5507C16.3273 10.5507 16.1034 10.7745 16.1034 11.0507H17.1034ZM16.1034 17C16.1034 17.2761 16.3273 17.5 16.6034 17.5C16.8796 17.5 17.1034 17.2761 17.1034 17H16.1034ZM18.8793 17C18.8793 17.2761 19.1032 17.5 19.3793 17.5C19.6554 17.5 19.8793 17.2761 19.8793 17H18.8793ZM23 11.5507C23.2761 11.5507 23.5 11.3268 23.5 11.0507C23.5 10.7745 23.2761 10.5507 23 10.5507V11.5507ZM22.5172 14.5255C22.7934 14.5255 23.0172 14.3016 23.0172 14.0255C23.0172 13.7493 22.7934 13.5255 22.5172 13.5255V14.5255ZM19.3793 13.5255C19.1032 13.5255 18.8793 13.7493 18.8793 14.0255C18.8793 14.3016 19.1032 14.5255 19.3793 14.5255V13.5255ZM12.1379 13.7731C11.8618 13.7731 11.6379 13.997 11.6379 14.2731C11.6379 14.5493 11.8618 14.7731 12.1379 14.7731V13.7731ZM11.2931 11.0506L11.2205 10.5559C11.2132 10.557 11.2058 10.5582 11.1986 10.5596L11.2931 11.0506ZM13.4972 11.9217C13.7045 12.1041 14.0204 12.084 14.2029 11.8767C14.3853 11.6695 14.3652 11.3535 14.1579 11.1711L13.4972 11.9217ZM24.6297 20.5478L20.5477 24.6297L21.2548 25.3368L25.3368 21.2549L24.6297 20.5478ZM22.5769 6H9.42304V7H22.5769V6ZM6.99997 22.5769V9.42308H5.99997V22.5769H6.99997ZM22.5769 7C23.9151 7 25 8.08485 25 9.42308L26 9.42309C26 7.53257 24.4674 6 22.5769 6V7ZM9.42304 6C7.53253 6 5.99997 7.53256 5.99997 9.42308H6.99997C6.99997 8.08485 8.08482 7 9.42304 7V6ZM9.42305 25C8.08482 25 6.99997 23.9151 6.99997 22.5769H5.99997C5.99997 24.4674 7.53253 26 9.42305 26V25ZM19.6538 25H9.42305V26H19.6538V25ZM26 19.6538L26 9.42309L25 9.42308L25 19.6538L26 19.6538ZM20.1538 25.5V19.6538H19.1538V25.5H20.1538ZM19.6538 20.1538H25.5V19.1538H19.6538V20.1538ZM20.5477 24.6297C20.3107 24.8668 19.9891 25 19.6538 25V26C20.2543 26 20.8302 25.7615 21.2548 25.3368L20.5477 24.6297ZM25.3368 21.2549C25.7614 20.8303 26 20.2544 26 19.6538L25 19.6538C25 19.9891 24.8668 20.3107 24.6297 20.5478L25.3368 21.2549ZM16.1034 11.0507V17H17.1034V11.0507H16.1034ZM19.8793 17V11.4225H18.8793V17H19.8793ZM19.8793 11.4225C19.8793 11.3724 19.8916 11.4272 19.828 11.4925C19.7621 11.5602 19.7012 11.5507 19.7414 11.5507V10.5507C19.5402 10.5507 19.2982 10.6031 19.1116 10.7948C18.9273 10.984 18.8793 11.2248 18.8793 11.4225H19.8793ZM19.7414 11.5507H23V10.5507H19.7414V11.5507ZM22.5172 13.5255H19.3793V14.5255H22.5172V13.5255ZM12.1379 14.7731H13.7069V13.7731H12.1379V14.7731ZM13.7069 14.7731C13.7471 14.7731 13.6862 14.7827 13.6202 14.7149C13.5567 14.6496 13.569 14.5948 13.569 14.645H14.569C14.569 14.4472 14.5209 14.2065 14.3367 14.0173C14.15 13.8256 13.9081 13.7731 13.7069 13.7731V14.7731ZM13.569 14.645V15.7605H14.569V14.645H13.569ZM13.569 15.7605C13.569 15.937 13.4465 16.1061 13.3036 16.155L13.6274 17.1011C14.2087 16.9022 14.569 16.3276 14.569 15.7605H13.569ZM13.3036 16.155C12.9963 16.2602 12.5684 16.376 11.6552 16.376V17.376C12.6729 17.376 13.2106 17.2438 13.6274 17.1011L13.3036 16.155ZM11.6552 16.376C10.8185 16.376 10.3006 16.0866 9.98403 15.7151C9.6557 15.3297 9.49999 14.8032 9.49999 14.2731H8.49999C8.49999 14.9826 8.70635 15.7574 9.22285 16.3636C9.75113 16.9836 10.5608 17.376 11.6552 17.376V16.376ZM9.49999 14.2731C9.49999 13.6916 9.58679 13.0758 9.86064 12.5772C10.1211 12.103 10.5686 11.6993 11.3876 11.5416L11.1986 10.5596C10.0865 10.7737 9.38749 11.3615 8.98417 12.0958C8.59423 12.8057 8.49999 13.6153 8.49999 14.2731H9.49999ZM11.3657 11.5453C12.1236 11.4341 12.6732 11.5471 13.0218 11.6749C13.1975 11.7394 13.3251 11.8088 13.4046 11.8583C13.4444 11.8831 13.472 11.9029 13.4875 11.9145C13.4952 11.9204 13.4999 11.9241 13.5015 11.9255C13.5024 11.9261 13.5024 11.9262 13.5017 11.9256C13.5013 11.9252 13.5008 11.9248 13.5 11.9241C13.4996 11.9238 13.4992 11.9234 13.4988 11.923C13.4985 11.9228 13.4983 11.9226 13.498 11.9224C13.4979 11.9223 13.4977 11.9221 13.4976 11.922C13.4974 11.9219 13.4972 11.9217 13.8276 11.5464C14.1579 11.1711 14.1577 11.1709 14.1575 11.1707C14.1574 11.1706 14.1572 11.1704 14.1571 11.1703C14.1567 11.17 14.1564 11.1697 14.1561 11.1694C14.1554 11.1688 14.1547 11.1682 14.1539 11.1675C14.1523 11.1662 14.1505 11.1646 14.1485 11.1629C14.1445 11.1595 14.1396 11.1554 14.1338 11.1507C14.1222 11.1413 14.1071 11.1293 14.0885 11.1153C14.0511 11.0872 13.9996 11.0508 13.9337 11.0098C13.802 10.9276 13.6128 10.8266 13.3661 10.7361C12.8699 10.5541 12.1522 10.4192 11.2205 10.5559L11.3657 11.5453Z" fill="black"/>
</svg>

<svg width="32" height="32" fill="none" xmlns="http://www.w3.org/2000/svg"><path d="m20.901 24.983-.353-.353.353.353ZM25.5 9.423H25h.5Zm0 10.23h.5-.5Zm-5.846 0v-.5a.5.5 0 0 0-.5.5h.5Zm-2.55-8.602a.5.5 0 1 0-1 0h1Zm-1 5.949a.5.5 0 0 0 1 0h-1Zm2.775 0a.5.5 0 0 0 1 0h-1ZM23 11.55a.5.5 0 0 0 0-1v1Zm-.483 2.975a.5.5 0 1 0 0-1v1Zm-3.138-1a.5.5 0 1 0 0 1v-1Zm-7.241.248a.5.5 0 0 0 0 1v-1Zm-.845-2.722-.072-.495a.526.526 0 0 0-.022.004l.094.49Zm2.204.87a.5.5 0 0 0 .66-.75l-.66.75Zm11.133 8.627-4.082 4.082.707.707 4.082-4.082-.707-.707ZM22.577 6H9.423v1h13.154V6ZM7 22.577V9.423H6v13.154h1ZM22.577 7A2.423 2.423 0 0 1 25 9.423h1A3.423 3.423 0 0 0 22.577 6v1ZM9.423 6A3.423 3.423 0 0 0 6 9.423h1A2.423 2.423 0 0 1 9.423 7V6Zm0 19A2.423 2.423 0 0 1 7 22.577H6A3.423 3.423 0 0 0 9.423 26v-1Zm10.23 0H9.424v1h10.23v-1ZM26 19.654V9.424h-1v10.23h1ZM20.154 25.5v-5.846h-1V25.5h1Zm-.5-5.346H25.5v-1h-5.846v1Zm.894 4.476c-.237.237-.559.37-.894.37v1c.6 0 1.176-.238 1.6-.663l-.706-.707Zm4.789-3.375c.424-.425.663-1 .663-1.601h-1c0 .335-.133.657-.37.894l.707.707ZM16.103 11.05V17h1v-5.95h-1ZM19.88 17v-5.578h-1V17h1Zm0-5.578c0-.05.013.005-.051.07-.066.068-.127.059-.087.059v-1a.858.858 0 0 0-.63.244.88.88 0 0 0-.232.627h1Zm-.138.129H23v-1h-3.259v1Zm2.776 1.974H19.38v1h3.138v-1Zm-10.38 1.248h1.57v-1h-1.57v1Zm1.57 0c.04 0-.02.01-.087-.058-.063-.065-.051-.12-.051-.07h1a.88.88 0 0 0-.232-.628.858.858 0 0 0-.63-.244v1Zm-.138-.128v1.116h1v-1.116h-1Zm0 1.116a.432.432 0 0 1-.265.394l.323.946c.582-.199.942-.773.942-1.34h-1Zm-.265.394c-.308.105-.736.221-1.649.221v1c1.018 0 1.556-.132 1.972-.275l-.323-.946Zm-1.649.221c-.836 0-1.354-.29-1.671-.66-.328-.386-.484-.913-.484-1.443h-1c0 .71.206 1.484.723 2.09.528.62 1.338 1.013 2.432 1.013v-1ZM9.5 14.273c0-.581.087-1.197.36-1.696.261-.474.709-.878 1.528-1.035l-.19-.982c-1.112.214-1.81.801-2.214 1.536-.39.71-.484 1.52-.484 2.177h1Zm1.866-2.728c.758-.11 1.307.002 1.656.13a2.09 2.09 0 0 1 .466.24c.007.005.012.01.014.01 0 .001 0 .001 0 0H13.5l-.001-.002h-.001v-.001l.33-.376.33-.375-.002-.002-.002-.002a.81.81 0 0 0-.065-.052 2.138 2.138 0 0 0-.155-.105 3.074 3.074 0 0 0-.568-.274c-.496-.182-1.214-.317-2.146-.18l.146.99Z" fill="#000"/></svg>
